X:1
T:A Shropshire Lad
T:There pass the careless People
T:A Shropshire Lad
T:3. There pass the careless People
T:Arthur Somervell
T:A. E. Housman
T:Creative Commons copyright waiver (CC0 1.0 Universal)
T:Creative Commons copyright waiver (CC0 1.0 Universal)
C:Arthur Somervell
Z:A. E. Housman
Z:Creative Commons copyright waiver (CC0 1.0 Universal)
%%score 1 { 2 | 3 }
L:1/8
Q:1/4=92
M:3/4
K:G
V:1 treble nm="Voice"
V:2 treble nm="Piano"
V:3 bass 
V:1
"^Andante espressivo" z6 | z6 | z6 | z6 |!pp!!<(! B2 B3/2 B/ c B!<)! | A2 B3 B | %6
w: ||||There pass the care- less|peo- ple That|
 G3/2!>(! G/ F3 F!>)! | E4 z2 |!mp! B2 B B c B | A2 B2 z B | G3 G F F | B,2 z2 z!f! B | c c2 F F2 | %13
w: call their souls their|own:|Here by the road I|loi- ter, How|i- dle and a-|lone. His|fol- ly has not|
 B B3 z!<(! E | A3/2 A/ (GF)!<)! (GE) | C4!ff! (B,B) | B B e3 d | c2 B3 A |!>(! G4- G G!>)! | %19
w: fel- low Be-|neath the blue * of _|day That *|gives to man or|wo- man His|heart _ and|
!mf!!>(! F4- F F!>)! |!p![Q:1/4=90] E6- |[Q:1/4=88] E6 |[Q:1/4=86] z6 | z6 | !fermata!z6 |] %25
w: soul _ a-|\- way.|_||||
V:2
!mf!!>(! ([GB]>[F^A] [GB][^CE][F=A]^D)!>)! |!mf!!>(! ([EG]>[^DF] [EG][^A,^C][DF]!>)![=A,=C]) | %2
 ([G,B,]3 E[A,C^D]F) |!>(! [G,B,]([^DF][EG])([B^d][ce])[f^a]!>)! | %4
!pp!!<(! ([gb]2 [fa]2 [eg][df]!<)! | [ce]2 [B^d]>[Ac][GB][FA]) | %6
!>(! ([EG][CE][A,C][CE][B,D][A,C])!>)! | [G,B,]([^DF]!<(![EG])([B^d][ce])[f^a]!<)! | %8
!mp! ([gb]2 [fa]2 [eg][df] | [ce]2 [B^d]>[Ac][GB][FA]) |!>(! ([EG][DF][CE][B,D][A,C][^A,^C])!>)! | %11
!<(! ([B,^D]>[^CE] [DF][EG][FA][GB])!<)! | z2!f! !arpeggio![CEFc]2 [B,^DF]2 | %13
 z2 !arpeggio![B,D=FB]2 [A,^CE]2 | [A,^DA]2 [B,EG]2 z2 | z2[K:bass]!<(! [E,G,C]2 [^D,A,B,]2!<)! | %16
[K:treble]!ff! ([^G,B,DE]2 [A,CF]2 [B,D^G]2 | [CEA]2 [^CEGB]3 [^DFA]) | %18
!>(! ([EG]>[DF] [CE]2 [B,D]2)!>)! |!>(! ([A,C]>[CE] [B,D]2 [A,C]2)!>)! | %20
!<(! ([G,B,]>[D=F]!<)!!>(! [CE]3 [B,D])!>)! |!mp!!<(! ([A,C]>[CE]!<)!!>(! [B,D]3 [A,C])!>)! | %22
[K:bass]!p! ([G,B,]>[F,^A,]!>(! [G,B,]3) (B,, | [G,B,]3 [F,^A,][G,B,]B,,-)!>)! | !fermata!B,,6 |] %25
V:3
 [E,,B,,]2 B,2 z2 | [C,,G,,]2 G,2 z2 | ([B,,,B,,]2 [G,,,G,,]2 [A,,,A,,]2) | [E,,,E,,]2 z2 z2 | %4
[K:treble] ([GB]2 [FA]2 [EG][DF] | [CE]2[K:bass] [B,^D]>[A,C][G,B,][F,A,]) | %6
 ([E,G,][C,E,][A,,C,][C,E,][B,,D,][A,,C,]) | [E,,B,,]2 z2 z2 |[K:treble] ([GB]2 [FA]2 [EG][DF] | %9
 [CE]2[K:bass] [B,^D]>[A,C][G,B,][F,A,]) | ([E,G,][D,F,][C,E,][B,,D,][A,,C,][^A,,^C,]) | %11
 [B,,^D,]2 [B,,,B,,]2 [B,,B,]2 | z2 [A,,E,F,]2 !>![B,,F,]2 | z2 !>![^G,,D,=F,]2 !>![A,,E,]2 | %14
 !>![F,,^D,]2 !>![G,,E,]2 z2 | z2 [^A,,,^A,,]2 [B,,,B,,]2 | [E,,,E,,]6- | [E,,,E,,]6 | [C,,C,]6 | %19
 [A,,,A,,]6 | [E,,,E,,]6- | [E,,,E,,]6 | [E,,,E,,]4 B,,,2 | [E,,,E,,]2 B,,,4 | %24
 !fermata![E,,,E,,]6 |] %25

